X: 7553
T: Cock O' The North
R: jig
M: 6/8
K: Amixolydian
|:e|cAc B2A|Ace f2e|cAc cBA|B3 B2 e|
cAc B2A|Ace f2e|cAc B2G|A3 A2:|
g|a2e f2e|a2e f2e|cAc cBA|B3 B2 g|
a2e f2e|a2e f2e|cAc B2G|A3 A2g|
a2e f2e|a2e f2e|cAc cBA|B3 Bcd|
efe c2A|Ace f2e|cAc B2G|A3 A2||
|:e|c2c cBA|c2e f2e|c2c cBA|Bz2 e2d|
c2c cBA|c2e f2e|cAc B2G|A3 A2:|
g|aee f2e|aee f2e|cAc cBA|B3 B2 g|
aee f2e|aee f2e|cAc B2G|A3 A2 g|
aee f2e|aee f2e|cAc cBA|B3 Bcd|
efe c2A|Ace f2e|cAc B2g|A3 A2||

